X: 16079
T: Green Fields Of Rossbeigh, The
R: reel
M: 4/4
K: Edorian
FA|:BEE2 BAFA|ABde fded|BEE2 BAFA|BFAF E2FA|
B2Bd BAFA|ABde fded|BEE2 BAFA|BGAG E2FA:|
|:Bdef g2fe|dBB2 dBAd|Bdef g2fe|dBAF E2ef|
g2ga gfeg|f2fg fedB|ABde fgfe|dBAF E2FA:|

